X:12
T:Perepilka
Z:V. Verkhovynets' , 192
S:A. Humenyuk
O:Ukraine
M:2/4
L:1/8
A:Ukraine
K:GMaj
[GBd] [GBd] [G2c2e2] | [G4B4d3] c/2B/2 | \
[Ac] [Ac] [G2B2] | [FA] [FA] G2 | \
G2 [FA] [FA] | [G2B2] [Ec] [Fc] |\
[GB] [GB] [F2A2] | G2 D2 | \
G2 [FA] [FA] | [G2B3/2]e/2 [EAc] [Ac] | \
[GB] [GB] [F2A2] | G2 G z |]
